X:3382
T:Conway's Farewell
C:Dougie Pincock
R:reel
Z:id:hn-reel-544
M:C|
K:A
cA~A2 ceef|fece fa~a2|cA~A2 ceef|fecf ecBd|
cA~A2 ceef|fece fa~a2|ecce dBdf|1 ecce a2ed:|2 ecce a2af||
eaae feaf|fece fa~a2|eaae feaf|fecf eccd|
eaae feaf|fece fa~a2|ecce dBdf|ecce a2af|
eaae feaf|fece fa~a2|eaae feaf|fecf ecBd|
cedf eAce|fece fa~a2|ecce dBdf|ecce a2ed||


